svg/emoji/look_right_fill.svg

<?xml version="1.0" encoding="UTF-8"?>
<svg width="24px" height="24px" viewBox="0 0 24 24" version="1.1" xmlns="http://www.w3.org/2000/svg" xmlns:xlink="http://www.w3.org/1999/xlink">
    <title>look_right_fill</title>
    <g id="Icon" stroke="none" stroke-width="1" fill="none" fill-rule="evenodd">
        <g id="Emoji" transform="translate(-384.000000, -48.000000)">
            <g id="look_right_fill" transform="translate(384.000000, 48.000000)">
                <path d="M24,0 L24,24 L0,24 L0,0 L24,0 Z M12.5935,23.2578 L12.5819,23.2595 L12.5109,23.295 L12.4919,23.2987 L12.4767,23.295 L12.4057,23.2595 C12.3958,23.2564 12.387,23.259 12.3821,23.2649 L12.378,23.2758 L12.3609,23.7031 L12.3659,23.7235 L12.3769,23.7357 L12.4805,23.8097 L12.4953,23.8136 L12.5071,23.8097 L12.6107,23.7357 L12.6233,23.7197 L12.6267,23.7031 L12.6096,23.2758 C12.6076,23.2657 12.601,23.2593 12.5935,23.2578 Z M12.8584,23.1453 L12.8445,23.1473 L12.6598,23.2397 L12.6499,23.2499 L12.6472,23.2611 L12.6651,23.6906 L12.6699,23.7034 L12.6784,23.7105 L12.8793,23.8032 C12.8914,23.8069 12.9022,23.803 12.9078,23.7952 L12.9118,23.7812 L12.8777,23.1665 C12.8753,23.1546 12.8674,23.147 12.8584,23.1453 Z M12.143,23.1473 C12.1332,23.1424 12.1222,23.1453 12.1156,23.1526 L12.1099,23.1665 L12.0758,23.7812 C12.0751,23.7927 12.0828,23.8019 12.0926,23.8046 L12.1083,23.8032 L12.3092,23.7105 L12.3186,23.7024 L12.3225,23.6906 L12.3404,23.2611 L12.3372,23.2485 L12.3278,23.2397 L12.143,23.1473 Z" id="MingCute" fill-rule="nonzero"></path>
                <path d="M2.06006,12 C2.06006,17.5228 6.53721,22 12.0601,22 C16.7991,22 20.7682,18.7034 21.7994,14.2784 C21.7812,14.2944 21.7629,14.3105 21.7445,14.3266 C21.558,14.4896 21.3631,14.6475 21.1598,14.8 C20.7763,15.0876 20.3645,15.324 19.9296,15.5125 C18.6763,16.0556 17.3803,16.1652 16.2229,16.0336 C16.0619,16.0153 15.9403,15.9959 15.8637,15.9806 C15.3221,15.8723 14.9709,15.3455 15.0792,14.8039 C15.1875,14.2623 15.7143,13.9111 16.2559,14.0194 C16.2793,14.0241 16.3457,14.0347 16.4487,14.0464 C17.2883,14.1418 18.2502,14.0605 19.1344,13.6774 C19.4286,13.5499 19.7044,13.3916 19.9598,13.2 C20.1231,13.0775 20.2793,12.9509 20.4287,12.8204 C20.9989,12.3223 21.4461,11.7913 21.7835,11.2647 C21.8732,11.1247 21.9451,11.002 22.0003,10.9004 C21.4528,5.89492 17.2113,2 12.0601,2 C6.53721,2 2.06006,6.47715 2.06006,12 Z M15.06,9.5 C15.06,10.3284 15.7316,11 16.56,11 C17.3884,11 18.06,10.3284 18.06,9.5 C18.06,8.67157 17.3884,8 16.56,8 C15.7316,8 15.06,8.67157 15.06,9.5 Z" id="形状" fill="#09244B"></path>
            </g>
        </g>
    </g>
</svg>

<svg xmlns="http://www.w3.org/2000/svg" width="24" height="24"><g fill="none" fill-rule="evenodd"><path d="M24 0v24H0V0h24ZM12.594 23.258l-.012.002-.071.035-.02.004-.014-.004-.071-.036c-.01-.003-.019 0-.024.006l-.004.01-.017.428.005.02.01.013.104.074.015.004.012-.004.104-.074.012-.016.004-.017-.017-.427c-.002-.01-.009-.017-.016-.018Zm.264-.113-.014.002-.184.093-.01.01-.003.011.018.43.005.012.008.008.201.092c.012.004.023 0 .029-.008l.004-.014-.034-.614c-.003-.012-.01-.02-.02-.022Zm-.715.002a.023.023 0 0 0-.027.006l-.006.014-.034.614c0 .012.007.02.017.024l.015-.002.201-.093.01-.008.003-.011.018-.43-.003-.012-.01-.01-.184-.092Z"/><path fill="#09244B" d="M2.06 12c0 5.523 4.477 10 10 10 4.74 0 8.708-3.297 9.74-7.722l-.056.049c-.186.163-.38.32-.584.473a6.062 6.062 0 0 1-1.23.712c-1.254.544-2.55.653-3.707.522a4.56 4.56 0 0 1-.36-.053 1 1 0 1 1 .393-1.962c.023.005.09.016.193.027.84.096 1.801.014 2.685-.369a4.06 4.06 0 0 0 .826-.477c.163-.122.32-.25.469-.38a7.322 7.322 0 0 0 1.355-1.555c.09-.14.161-.263.216-.365-.547-5.005-4.789-8.9-9.94-8.9-5.523 0-10 4.477-10 10Zm13-2.5a1.5 1.5 0 1 0 3 0 1.5 1.5 0 0 0-3 0Z"/></g></svg>
